resources/haticons/SVG/clear-formatting.svg

<!-- Generated by IcoMoon.io -->
<svg version="1.1" xmlns="http://www.w3.org/2000/svg" width="24" height="24" viewBox="0 0 24 24">
<title>clear-formatting</title>
<path d="M0 21h13.5v3h-13.5zM21 3h-7.091l-4.307 16.5h-3.101l4.307-16.5h-6.308v-3h16.5zM21.792 24l-3.042-3.042-3.042 3.042-1.458-1.458 3.042-3.042-3.042-3.042 1.458-1.458 3.042 3.042 3.042-3.042 1.458 1.458-3.042 3.042 3.042 3.042z"></path>
</svg>

<svg xmlns="http://www.w3.org/2000/svg" width="24" height="24"><path d="M0 21h13.5v3H0zM21 3h-7.091L9.602 19.5H6.501L10.808 3H4.5V0H21zm.792 21l-3.042-3.042L15.708 24l-1.458-1.458 3.042-3.042-3.042-3.042L15.708 15l3.042 3.042L21.792 15l1.458 1.458-3.042 3.042 3.042 3.042z"/></svg>
